svg/pixelfed.svg

<?xml version="1.0" encoding="UTF-8"?>
<svg width="256px" height="256px" viewBox="0 0 50 50" version="1.1" xmlns="http://www.w3.org/2000/svg" xmlns:xlink="http://www.w3.org/1999/xlink">
    <!-- Generator: Sketch 51.3 (57544) - http://www.bohemiancoding.com/sketch -->
    <title>icon/color/svg/pixelfed-icon-color</title>
    <desc>Created with Sketch.</desc>
    <defs>
        <rect id="path-1" x="0" y="0.112107623" width="50" height="49.7757848"></rect>
        <linearGradient x1="100%" y1="55.8067876%" x2="0%" y2="60.1177402%" id="linearGradient-3">
            <stop stop-color="#FF5C34" offset="0%"></stop>
            <stop stop-color="#EB0256" offset="100%"></stop>
        </linearGradient>
        <linearGradient x1="33.0892153%" y1="100%" x2="68.9900955%" y2="15.3101693%" id="linearGradient-4">
            <stop stop-color="#A63FDB" offset="0%"></stop>
            <stop stop-color="#FF257E" offset="100%"></stop>
        </linearGradient>
        <linearGradient x1="14.7223019%" y1="50%" x2="94.315299%" y2="67.5256558%" id="linearGradient-5">
            <stop stop-color="#00FFF0" offset="0%"></stop>
            <stop stop-color="#0087FF" offset="100%"></stop>
        </linearGradient>
        <linearGradient x1="81.2260936%" y1="10.0128769%" x2="20.8151903%" y2="74.4920673%" id="linearGradient-6">
            <stop stop-color="#17C934" offset="0%"></stop>
            <stop stop-color="#03FF6E" offset="100%"></stop>
        </linearGradient>
        <linearGradient x1="50%" y1="111.913008%" x2="30.5601577%" y2="0%" id="linearGradient-7">
            <stop stop-color="#FFB000" offset="0%"></stop>
            <stop stop-color="#FF7725" offset="100%"></stop>
        </linearGradient>
        <path d="M25.8796198,24.6636771 C25.5187511,17.8623246 19.644178,12.6376937 12.7583935,12.9941375 C5.87260905,13.3505813 0.583119676,19.1531217 0.94398835,25.9544743 L0.954359402,26.1499392 C0.924772259,25.6582574 0.909768036,25.162698 0.909768036,24.6636771 C0.909768036,14.5077362 7.12441451,5.78550566 16.0023658,2.00478143 L16.5257487,1.7959139 C22.9188985,-0.755414121 30.1955057,2.29544903 32.7785059,8.61020748 C35.3615061,14.9249659 32.2727696,22.1123491 25.8796198,24.6636771 Z" id="path-8"></path>
        <path d="M16.3387661,1.87053346 L16.5257487,1.7959139 C22.9188985,-0.755414121 30.1955057,2.29544903 32.7785059,8.61020748 C35.3615061,14.9249659 32.2727696,22.1123491 25.8796198,24.6636771 C25.8261894,23.6566658 25.6518881,22.6842191 25.3713301,21.7593344 C28.8012958,19.9026454 31.1268503,16.3032843 31.1268503,12.167421 C31.1268503,6.13067623 26.1723508,1.23692769 20.060666,1.23692769 C18.7548626,1.23692769 17.5018839,1.46032366 16.3387661,1.87053346 Z" id="path-9"></path>
        <linearGradient x1="-81.3646199%" y1="59.6233723%" x2="121.418067%" y2="72.057922%" id="linearGradient-10">
            <stop stop-color="#9EE85D" offset="0%"></stop>
            <stop stop-color="#0ED061" offset="100%"></stop>
        </linearGradient>
        <path d="M28.3794511,9.27014825 L28.5664337,9.1955287 C34.9595835,6.64420067 42.2361907,9.69506383 44.8191909,16.0098223 C47.4021911,22.3245807 44.3134546,29.5119639 37.9203048,32.0632919 C37.8668744,31.0562806 37.6925731,30.0838339 37.4120151,29.1589492 C40.8419808,27.3022602 43.1675353,23.7028991 43.1675353,19.5670358 C43.1675353,13.530291 38.2130358,8.63654249 32.101351,8.63654249 C30.7955476,8.63654249 29.5425689,8.85993845 28.3794511,9.27014825 Z" id="path-11"></path>
        <linearGradient x1="45.510285%" y1="116.818646%" x2="0%" y2="-4.0376427%" id="linearGradient-12">
            <stop stop-color="#21EFE3" offset="0%"></stop>
            <stop stop-color="#2598FF" offset="100%"></stop>
        </linearGradient>
        <path d="M25.1352415,22.7323503 L25.3222242,22.6577307 C31.7153739,20.1064027 38.9919812,23.1572658 41.5749814,29.4720243 C44.1579816,35.7867827 41.069245,42.9741659 34.6760953,45.5254939 C34.6226649,44.5184826 34.4483636,43.5460359 34.1678055,42.6211512 C37.5977712,40.7644622 39.9233257,37.1651011 39.9233257,33.0292378 C39.9233257,26.992493 34.9688263,22.0987445 28.8571415,22.0987445 C27.5513381,22.0987445 26.2983594,22.3221405 25.1352415,22.7323503 Z" id="path-13"></path>
        <linearGradient x1="100%" y1="58.2065614%" x2="-89.649052%" y2="74.3165445%" id="linearGradient-14">
            <stop stop-color="#A63FDB" offset="0%"></stop>
            <stop stop-color="#FF257E" offset="100%"></stop>
        </linearGradient>
        <path d="M10.6540931,23.7648224 L10.8410757,23.6902028 C17.2342255,21.1388748 24.5108328,24.1897379 27.093833,30.5044964 C29.6768331,36.8192548 26.5880966,44.006638 20.1949468,46.557966 C20.1415164,45.5509547 19.9672152,44.578508 19.6866571,43.6536233 C23.1166228,41.7969343 25.4421773,38.1975732 25.4421773,34.0617099 C25.4421773,28.0249651 20.4876778,23.1312166 14.375993,23.1312166 C13.0701896,23.1312166 11.8172109,23.3546126 10.6540931,23.7648224 Z" id="path-15"></path>
        <path d="M5.54585436,10.6972047 L5.73283698,10.6225852 C12.1259868,8.07125717 19.402594,11.1221203 21.9855942,17.4368788 C24.5685944,23.7516372 21.4798579,30.9390204 15.0867081,33.4903484 C15.0332777,32.483337 14.8589764,31.5108904 14.5784184,30.5860057 C18.0083841,28.7293167 20.3339386,25.1299556 20.3339386,20.9940923 C20.3339386,14.9573475 15.3794391,10.063599 9.26775427,10.063599 C7.9619509,10.063599 6.70897218,10.2869949 5.54585436,10.6972047 Z" id="path-16"></path>
        <path d="M35.631732,42.3730981 L40.1765635,42.3730981 C44.4579764,42.3730981 47.9287473,39.0094481 47.9287473,34.8601757 C47.9287473,30.7109033 44.4579764,27.3472534 40.1765635,27.3472534 L33.6170234,27.3472534 C31.1469775,27.3472534 29.1446097,29.2878206 29.1446097,31.6816316 L29.1446097,48.5516086 L35.631732,42.3730981 Z" id="path-17"></path>
        <filter x="-26.6%" y="-18.9%" width="153.2%" height="147.2%" filterUnits="objectBoundingBox" id="filter-18">
            <feOffset dx="0" dy="1" in="SourceAlpha" result="shadowOffsetOuter1"></feOffset>
            <feGaussianBlur stdDeviation="1.5" in="shadowOffsetOuter1" result="shadowBlurOuter1"></feGaussianBlur>
            <feColorMatrix values="0 0 0 0 0   0 0 0 0 0   0 0 0 0 0  0 0 0 0.298686594 0" type="matrix" in="shadowBlurOuter1"></feColorMatrix>
        </filter>
    </defs>
    <g id="Page-1" stroke="none" stroke-width="1" fill="none" fill-rule="evenodd">
        <g id="icon-copy-9">
            <g id="Group">
                <mask id="mask-2" fill="white">
                    <use xlink:href="#path-1"></use>
                </mask>
                <g id="Rectangle"></g>
                <g id="Group-12" mask="url(#mask-2)">
                    <g transform="translate(-12.598536, -12.100617)">
                        <g id="Group-5" stroke-width="1" fill-rule="evenodd" transform="translate(37.298810, 37.253293) rotate(40.000000) translate(-37.298810, -37.253293) translate(11.517560, 12.253293)">
                            <path d="M25.8796198,24.6636771 C19.1892035,23.016023 12.4132807,27.0374857 10.7451726,33.6458656 C9.07706451,40.2542455 13.1484497,46.9470835 19.8388659,48.5947376 L20.3450373,48.7193929 C9.69088103,46.3380067 1.6209996,37.2282295 0.954359365,26.1499385 L0.94398835,25.9544743 C0.583119676,19.1531217 5.87260905,13.3505813 12.7583935,12.9941375 C19.644178,12.6376937 25.5187511,17.8623246 25.8796198,24.6636771 Z" id="Combined-Shape" fill="url(#linearGradient-3)"></path>
                            <path d="M25.8796198,24.6636771 C22.3283116,30.5015748 24.2407085,38.0777295 30.1510778,41.5854923 C36.0614471,45.0932551 43.7316521,43.2043076 47.2829602,37.3664099 L47.5182297,36.9796568 C43.2031146,44.3603916 35.1286161,49.3273543 25.8796198,49.3273543 C23.9775953,49.3273543 22.125241,49.1172988 20.3450373,48.7193929 L19.8388659,48.5947376 C13.1484497,46.9470835 9.07706451,40.2542455 10.7451726,33.6458656 C12.4132807,27.0374857 19.1892035,23.016023 25.8796198,24.6636771 Z" id="Combined-Shape-Copy-6" fill="url(#linearGradient-4)"></path>
                            <path d="M25.8796198,24.6636771 C30.3117909,29.8809656 38.1867277,30.5614853 43.4687835,26.1836605 C48.7508393,21.8058357 49.439807,14.0274595 45.0076359,8.81017106 L44.9061506,8.69070851 C48.612765,12.9940954 50.8494715,18.5708837 50.8494715,24.6636771 C50.8494715,29.1494627 49.6370515,33.3555446 47.5182297,36.9796568 L47.2829602,37.3664099 C43.7316521,43.2043076 36.0614471,45.0932551 30.1510778,41.5854923 C24.2407085,38.0777295 22.3283116,30.5015748 25.8796198,24.6636771 Z" id="Combined-Shape-Copy-5" fill="url(#linearGradient-5)"></path>
                            <path d="M25.8796198,24.6636771 C32.2727696,22.1123491 35.3615061,14.9249659 32.7785059,8.61020748 C30.1955057,2.29544903 22.9188985,-0.755414121 16.5257487,1.7959139 L16.0023658,2.00478143 C19.0317193,0.714714639 22.3711681,0 25.8796198,0 C33.5016588,0 40.3260608,3.37321498 44.9061506,8.69070851 L45.0076359,8.81017106 C49.439807,14.0274595 48.7508393,21.8058357 43.4687835,26.1836605 C38.1867277,30.5614853 30.3117909,29.8809656 25.8796198,24.6636771 Z" id="Combined-Shape-Copy-4" fill="url(#linearGradient-6)"></path>
                            <g id="Combined-Shape-Copy-3" fill="url(#linearGradient-7)">
                                <use xlink:href="#path-8"></use>
                                <use fill-opacity="0.1" style="mix-blend-mode: multiply;" xlink:href="#path-8"></use>
                            </g>
                            <g id="Combined-Shape" opacity="0.504910714">
                                <use fill="url(#linearGradient-7)" xlink:href="#path-9"></use>
                                <use fill-opacity="0.496178668" fill="#000000" style="mix-blend-mode: overlay;" xlink:href="#path-9"></use>
                            </g>
                            <g id="Combined-Shape-Copy-7" opacity="0.544252232" transform="translate(37.055527, 20.178799) rotate(72.000000) translate(-37.055527, -20.178799) ">
                                <use fill="url(#linearGradient-10)" xlink:href="#path-11"></use>
                                <use fill-opacity="0.499886775" fill="#000000" style="mix-blend-mode: overlay;" xlink:href="#path-11"></use>
                            </g>
                            <g id="Combined-Shape-Copy-8" opacity="0.562220982" transform="translate(33.811317, 33.641001) rotate(143.000000) translate(-33.811317, -33.641001) ">
                                <use fill="url(#linearGradient-12)" xlink:href="#path-13"></use>
                                <use fill="#000000" style="mix-blend-mode: overlay;" xlink:href="#path-13"></use>
                            </g>
                            <g id="Combined-Shape-Copy-9" opacity="0.584151786" transform="translate(19.330169, 34.673473) rotate(217.000000) translate(-19.330169, -34.673473) ">
                                <use fill="url(#linearGradient-14)" xlink:href="#path-15"></use>
                                <use fill-opacity="0.503085371" fill="#000000" style="mix-blend-mode: overlay;" xlink:href="#path-15"></use>
                            </g>
                            <g id="Combined-Shape-Copy-10" opacity="0.180133929" transform="translate(14.221930, 21.605855) rotate(-71.000000) translate(-14.221930, -21.605855) ">
                                <use fill="url(#linearGradient-3)" xlink:href="#path-16"></use>
                                <use fill-opacity="0.772843071" fill="#000000" style="mix-blend-mode: multiply;" xlink:href="#path-16"></use>
                            </g>
                        </g>
                        <g id="Path-6-Copy-2" fill-rule="nonzero">
                            <use fill="black" fill-opacity="1" filter="url(#filter-18)" xlink:href="#path-17"></use>
                            <use fill="#FFFFFF" xlink:href="#path-17"></use>
                        </g>
                    </g>
                </g>
            </g>
        </g>
    </g>
</svg>

<svg xmlns="http://www.w3.org/2000/svg" xmlns:xlink="http://www.w3.org/1999/xlink" width="256" height="256" viewBox="0 0 50 50"><defs><linearGradient id="c" x1="100%" x2="0%" y1="55.807%" y2="60.118%"><stop offset="0%" stop-color="#FF5C34"/><stop offset="100%" stop-color="#EB0256"/></linearGradient><linearGradient id="d" x1="33.089%" x2="68.99%" y1="100%" y2="15.31%"><stop offset="0%" stop-color="#A63FDB"/><stop offset="100%" stop-color="#FF257E"/></linearGradient><linearGradient id="e" x1="14.722%" x2="94.315%" y1="50%" y2="67.526%"><stop offset="0%" stop-color="#00FFF0"/><stop offset="100%" stop-color="#0087FF"/></linearGradient><linearGradient id="f" x1="81.226%" x2="20.815%" y1="10.013%" y2="74.492%"><stop offset="0%" stop-color="#17C934"/><stop offset="100%" stop-color="#03FF6E"/></linearGradient><linearGradient id="g" x1="50%" x2="30.56%" y1="111.913%" y2="0%"><stop offset="0%" stop-color="#FFB000"/><stop offset="100%" stop-color="#FF7725"/></linearGradient><linearGradient id="k" x1="-81.365%" x2="121.418%" y1="59.623%" y2="72.058%"><stop offset="0%" stop-color="#9EE85D"/><stop offset="100%" stop-color="#0ED061"/></linearGradient><linearGradient id="m" x1="45.51%" x2="0%" y1="116.819%" y2="-4.038%"><stop offset="0%" stop-color="#21EFE3"/><stop offset="100%" stop-color="#2598FF"/></linearGradient><linearGradient id="o" x1="100%" x2="-89.649%" y1="58.207%" y2="74.317%"><stop offset="0%" stop-color="#A63FDB"/><stop offset="100%" stop-color="#FF257E"/></linearGradient><path id="a" d="M0 .112h50v49.776H0z"/><path id="h" d="M25.88 24.664c-.361-6.802-6.236-12.026-13.122-11.67-6.885.357-12.175 6.16-11.814 12.96l.01.196c-.03-.492-.044-.987-.044-1.486 0-10.156 6.214-18.878 15.092-22.66l.524-.208c6.393-2.551 13.67.5 16.253 6.814 2.583 6.315-.506 13.502-6.9 16.054Z"/><path id="i" d="m16.339 1.87.187-.074c6.393-2.551 13.67.5 16.253 6.814 2.583 6.315-.506 13.502-6.9 16.054a12.225 12.225 0 0 0-.508-2.905c3.43-1.856 5.756-5.456 5.756-9.592 0-6.036-4.955-10.93-11.066-10.93a11.17 11.17 0 0 0-3.722.634Z"/><path id="j" d="m28.38 9.27.186-.074c6.394-2.552 13.67.5 16.253 6.814 2.583 6.315-.506 13.502-6.899 16.053a12.225 12.225 0 0 0-.508-2.904c3.43-1.857 5.756-5.456 5.756-9.592 0-6.037-4.955-10.93-11.067-10.93a11.17 11.17 0 0 0-3.722.633Z"/><path id="l" d="m25.135 22.732.187-.074c6.393-2.552 13.67.5 16.253 6.814 2.583 6.315-.506 13.502-6.899 16.053a12.225 12.225 0 0 0-.508-2.904c3.43-1.857 5.755-5.456 5.755-9.592 0-6.037-4.954-10.93-11.066-10.93a11.17 11.17 0 0 0-3.722.633Z"/><path id="n" d="m10.654 23.765.187-.075c6.393-2.551 13.67.5 16.253 6.814 2.583 6.315-.506 13.503-6.9 16.054a12.225 12.225 0 0 0-.507-2.904c3.43-1.857 5.755-5.456 5.755-9.592 0-6.037-4.954-10.93-11.066-10.93a11.17 11.17 0 0 0-3.722.633Z"/><path id="p" d="m5.546 10.697.187-.074c6.393-2.552 13.67.5 16.253 6.814 2.583 6.315-.506 13.502-6.9 16.053a12.225 12.225 0 0 0-.508-2.904c3.43-1.857 5.756-5.456 5.756-9.592 0-6.037-4.955-10.93-11.066-10.93a11.17 11.17 0 0 0-3.722.633Z"/><path id="q" d="M35.632 42.373h4.545c4.281 0 7.752-3.364 7.752-7.513 0-4.15-3.471-7.513-7.752-7.513h-6.56c-2.47 0-4.472 1.94-4.472 4.335v16.87l6.487-6.179Z"/><filter id="r" width="153.2%" height="147.2%" x="-26.6%" y="-18.9%" filterUnits="objectBoundingBox"><feOffset dy="1" in="SourceAlpha" result="shadowOffsetOuter1"/><feGaussianBlur in="shadowOffsetOuter1" result="shadowBlurOuter1" stdDeviation="1.5"/><feColorMatrix in="shadowBlurOuter1" values="0 0 0 0 0 0 0 0 0 0 0 0 0 0 0 0 0 0 0.298686594 0"/></filter></defs><g fill="none" fill-rule="evenodd"><mask id="b" fill="#fff"><use xlink:href="#a"/></mask><g mask="url(#b)"><path fill="url(#c)" d="M25.88 24.664c-6.69-1.648-13.467 2.373-15.135 8.982-1.668 6.608 2.403 13.301 9.094 14.949l.506.124C9.691 46.338 1.621 37.23.955 26.15l-.011-.195c-.36-6.8 4.929-12.603 11.814-12.96 6.886-.356 12.76 4.868 13.122 11.67Z" transform="rotate(40 25.031 23.591)"/><path fill="url(#d)" d="M25.88 24.664c-3.552 5.838-1.64 13.414 4.271 16.921 5.91 3.508 13.58 1.62 17.132-4.219l.235-.386c-4.315 7.38-12.39 12.347-21.638 12.347a25.35 25.35 0 0 1-5.535-.608l-.506-.124c-6.69-1.648-10.762-8.34-9.094-14.95 1.668-6.608 8.444-10.629 15.135-8.981Z" transform="rotate(40 25.031 23.591)"/><path fill="url(#e)" d="M25.88 24.664c4.432 5.217 12.307 5.897 17.589 1.52 5.282-4.378 5.97-12.157 1.539-17.374l-.102-.12c3.707 4.304 5.943 9.88 5.943 15.974a24.32 24.32 0 0 1-3.33 12.316l-.236.386c-3.551 5.838-11.222 7.727-17.132 4.22-5.91-3.508-7.823-11.084-4.271-16.922Z" transform="rotate(40 25.031 23.591)"/><path fill="url(#f)" d="M25.88 24.664c6.393-2.552 9.482-9.739 6.899-16.054-2.583-6.315-9.86-9.365-16.253-6.814l-.524.209A25.153 25.153 0 0 1 25.88 0a25.042 25.042 0 0 1 19.026 8.69l.102.12c4.432 5.217 3.743 12.996-1.54 17.374-5.281 4.377-13.156 3.697-17.588-1.52Z" transform="rotate(40 25.031 23.591)"/><g fill="url(#g)" transform="rotate(40 25.031 23.591)"><use xlink:href="#h"/><use xlink:href="#h" fill-opacity=".1" style="mix-blend-mode:multiply"/></g><g opacity=".505" transform="rotate(40 25.031 23.591)"><use xlink:href="#i" fill="url(#g)"/><use xlink:href="#i" fill="#000" fill-opacity=".496" style="mix-blend-mode:overlay"/></g><g opacity=".544" transform="rotate(112 33.87 24.234)"><use xlink:href="#j" fill="url(#k)"/><use xlink:href="#j" fill="#000" fill-opacity=".5" style="mix-blend-mode:overlay"/></g><g opacity=".562" transform="rotate(-177 29.597 35.399)"><use xlink:href="#l" fill="url(#m)"/><use xlink:href="#l" fill="#000" style="mix-blend-mode:overlay"/></g><g opacity=".584" transform="rotate(-103 13.947 33.848)"><use xlink:href="#n" fill="url(#o)"/><use xlink:href="#n" fill="#000" fill-opacity=".503" style="mix-blend-mode:overlay"/></g><g opacity=".18" transform="rotate(-31 4.435 11.504)"><use xlink:href="#p" fill="url(#c)"/><use xlink:href="#p" fill="#000" fill-opacity=".773" style="mix-blend-mode:multiply"/></g><g fill-rule="nonzero" transform="translate(-12.599 -12.1)"><use xlink:href="#q" fill="#000" filter="url(#r)"/><use xlink:href="#q" fill="#FFF"/></g></g></g></svg>
